icons/file-directory-open-fill-24.svg

<svg width="24" height="24" viewBox="0 0 24 24">
  <path
    d="M2 4.75C2 3.7835 2.7835 3 3.75 3H8.72108C9.30015 3 9.84173 3.28645 10.1676 3.76512L11.5723 5.8282C11.6188 5.89658 11.6962 5.9375 11.7789 5.9375H18.0029C18.9694 5.9375 19.7529 6.721 19.7529 7.6875V7.80493H5.40754C4.93946 7.80493 4.56 8.18439 4.56 8.65248C4.56 9.12056 4.93946 9.50002 5.40754 9.50002H20.8922C21.4848 9.50002 21.9474 10.0125 21.887 10.6021L21 19.25C20.8942 20.2997 20.2165 21 19.25 21H3.75C2.7835 21 2 20.2165 2 19.25V4.75Z" />
</svg>

<svg xmlns="http://www.w3.org/2000/svg" width="24" height="24" viewBox="0 0 24 24"><path d="M2 4.75C2 3.784 2.784 3 3.75 3h4.971c.58 0 1.12.286 1.447.765l1.404 2.063a.25.25 0 0 0 .207.11h6.224c.966 0 1.75.783 1.75 1.75v.117H5.408a.848.848 0 0 0 0 1.695h15.484a1 1 0 0 1 .995 1.102L21 19.25c-.106 1.05-.784 1.75-1.75 1.75H3.75A1.75 1.75 0 0 1 2 19.25V4.75Z"/></svg>
